X: 1
T: Kiss The Maid Behind The Barrel
R: reel
M: 4/4
L: 1/8
K: Gmaj
|: DG~G2 AG (3GGG | DG~G2 cAFA | DG~G2 ADFA | defd cAFA :|
dg~g2 aggf | dg~g2 agfe | df~f2 af~f2 | defd cAFA |
dg~g2| agfg | a2ag ~f2fg | afge fde^c | d2eg fdcA ||
|: G2dG BGdG | ~G2dB cAFA |1 G2dG BGBc |
defd cAFA :|2 ~B3G ADFA | defd cAFA ||
|: B3G ~A2AG | BABd gedc |1 B2GB ADFA |
defd cAFA :|2 BG~G2 ADFA | defd cAFA ||


Tune 676	Setting 13727

